X: 99
T: Against the Wind
C: Teton Sioux band 1911-1914
N: Derived from sioux099.krn
O: South Dakota, U.S.A.
N: Teton Sioux Music by Frances Densmore, 1918
Z: transcribed to **kern format by Craig Sapp
L: 1/16
M: 2/4
Q: 1/4=58
K: B clef=bass
%%linebreak <none>
F,2> F,2 F,3 F [I:setbarnb 2]| 
F2> F2F4 ||  
[M:3/4]F2< E2 (3(F2 E2) C2B,4 ||  
[M:2/4]B,2 C2 C B,2 C | 
(C2< B,2) B,3 G, ||  
[M:3/4]F,4F,2> F,2F,4 ||  
[M:2/4]B, B, B, B, B, G,3 | 
G,2 G,2B,4 | 
B, B, B, B, B, F,3 | 
F,2 F,2F,4 |]  



